X:572
T: "Schifferlied"
N: Z1252
O: Europa, Mitteleuropa, Deutschland, Niederrhein
R: Liebes - Lied
M: 2/4
L: 1/16
K: G
D2 | G2A2_B2c2 | d2_e2d4 |
e2=f2e4 | d2_e2d3
d | G2A2_B2c2 | d2_e2d3
D | _B4A4 | G4z2
GA | _B2c2d2_e2 | =f2g2f3
f | A2_B2c2d2 | _e2=f2e3
e | G2A2_B3c | d2_e2d3
D | _B4A4 | G4z2

@@@ Tune index: 10330
